X:142
T:RVW2/2/142 Tuesday Morning
C:Frank Bailey, Coombe Bissett, Wwiltshire, 2 September 1904
L:1/8
Q:1/4=81
M:6/8
I:linebreak $
K:G
"^(Editorial suggestion " B | d2 B/B/ d2 B | cBA B2 d | BAA AdB/B/ | GEE"^(a)" (E2 D) |$ 
w: As|I walk- ï¿½d out one|eve- ning in spring to|hear the birds whis- tle and the|night- in- gales sing, *|
G2 F/G/ AGA | Bgf e2 e/e/ | dBB BGA/B/ | cAF G2 ||$ B | d2 B/B/ d2 B | cBA B2 d | BAA AdB/B/ | 
w: six pret- ty maid- ens so|sweet- ly [did sing] say- ing|I shall be mar- ried on a|Tues- day mor- ning.|||||
GEE"^(a) var." E3 |$ G2 F/G/ AGA | Bgf e2 e/e/ | dBB BGA/B/ | cAF G2 |] 
w: |||||



